X: 1
T: Hillsboro Highlands Heat
C: Ann Hooper
N: 2001-8-23
R: jig
Z: John Chambers <jc:trillian.mit.edu>
M: 6/8
L: 1/8
K:Em
B, \
| "Em"EFG B2G | "Em"E2F GAB | "D"AFD A,2D | "D"F2D "Bm"AGF \
| "Em"EFG B2G | "Em"E2B, EFG | "D"ABA "Bm"FED | "Em"E3 E2 :|
F \
| "G"GAB GAB | "G"GAB "Em"e2g | "D"fed fed | "D"A2d FED \
| "G"GAB GAB | "G"GAB "Em"e2^c | "D"d^cd "Bm"AFD | "Em"E3 E2 ||
F \
| "G"GAB GAB | "Em"egf "A7"ed^c | "D"d^cd A^GA | "D"F2D "Bm"AGF \
| "Em"EFG B2G | "Em"EFG e2B | "D"ABA "Bm"FED | "Em"E3 E2 |]
